svg/rook.svg

<?xml version="1.0" encoding="UTF-8" standalone="no"?>
<svg
   width="100"
   height="100"
   viewBox="-50 -100 386.833 503"
   version="1.1"
   id="svg24"
   sodipodi:docname="rook.svg"
   inkscape:version="1.2.2 (b0a8486541, 2022-12-01)"
   xmlns:inkscape="http://www.inkscape.org/namespaces/inkscape"
   xmlns:sodipodi="http://sodipodi.sourceforge.net/DTD/sodipodi-0.dtd"
   xmlns="http://www.w3.org/2000/svg"
   xmlns:svg="http://www.w3.org/2000/svg">
  <sodipodi:namedview
     id="namedview26"
     pagecolor="#505050"
     bordercolor="#ffffff"
     borderopacity="1"
     inkscape:showpageshadow="0"
     inkscape:pageopacity="0"
     inkscape:pagecheckerboard="1"
     inkscape:deskcolor="#505050"
     showgrid="false"
     inkscape:zoom="8.37"
     inkscape:cx="50.059737"
     inkscape:cy="50.059737"
     inkscape:window-width="1920"
     inkscape:window-height="1011"
     inkscape:window-x="0"
     inkscape:window-y="32"
     inkscape:window-maximized="1"
     inkscape:current-layer="svg24" />
  <defs
     id="defs5">
    <clipPath
       id="clip1">
      <path
         d="M 0 0 L 296.832031 0 L 296.832031 373 L 0 373 Z M 0 0 "
         id="path2" />
    </clipPath>
  </defs>
  <path
     style="fill:#ffffff;fill-opacity:1;fill-rule:nonzero;stroke:none"
     d="M 49.320312,162.34766 C 49.804688,93.91797 5.804688,37.183594 18.757812,-3.761719 H 278.07812 c 12.95313,40.945313 -31.04687,97.679689 -30.5625,166.109379 0.50782,72.20312 43.91016,132.21484 30.5625,174.41796 H 18.757812 C 5.40625,294.5625 48.808594,234.55078 49.320312,162.34766"
     id="path7" />
  <path
     style="fill:#ffbbff;fill-opacity:1;fill-rule:nonzero;stroke:none"
     d="m 92.859375,-2 c -9.742187,55.203125 6,125.32422 6,173 0,46.54297 -18.246094,101.05469 -15,166 L 23.519531,336.76562 42.859375,171 23.519531,-4.195312 Z m 0,0"
     id="path9" />
  <g
     clip-path="url(#clip1)"
     clip-rule="nonzero"
     id="g13"
     transform="translate(0,-20)">
    <path
       style="fill:#000000;fill-opacity:1;fill-rule:nonzero;stroke:none"
       d="m 251.26562,281.75781 c -9.24609,-29.23047 -19.72656,-62.35547 -19.98828,-99.29297 -0.2539,-35.80859 10.44532,-67.73437 19.88282,-95.90234 6.95312,-20.757812 13.16406,-39.292969 13.0664,-54.089844 H 32.605469 c -0.09766,14.796875 6.113281,33.332032 13.066406,54.089844 9.4375,28.16797 20.136719,60.09375 19.882813,95.90234 -0.261719,36.9375 -10.742188,70.06641 -19.988282,99.29297 -7.160156,22.64453 -13.546875,42.82813 -13.101562,58.76953 H 264.37109 c 0.44141,-15.9414 -5.9414,-36.125 -13.10547,-58.76953 M 3.277344,361.66016 c -8.523438,-26.9375 1.121094,-57.42188 11.328125,-89.69532 8.554687,-27.03906 18.25,-57.6875 18.476562,-89.73047 C 33.300781,151.83984 23.9375,123.89844 14.882812,96.878906 4.65625,66.355469 -5.007812,37.523438 3.277344,11.339844 5.410156,4.589844 11.675781,0 18.757812,0 H 278.07812 c 7.07813,0 13.34375,4.589844 15.48047,11.339844 8.28125,26.183594 -1.3789,55.015625 -11.60937,85.539062 -9.05469,27.019534 -18.41406,54.960934 -18.19922,85.355464 0.22656,32.04297 9.92187,62.6875 18.47656,89.73047 10.21094,32.26953 19.85156,62.75782 11.33203,89.69532 C 291.42187,368.41016 285.15625,373 278.07812,373 H 18.757812 C 11.675781,373 5.410156,368.41016 3.277344,361.66016"
       id="path11" />
  </g>
  <path
     style="fill:none;stroke:#000000;stroke-width:30;stroke-linecap:butt;stroke-linejoin:round;stroke-miterlimit:10;stroke-opacity:1"
     d="M 98.582031,4.5429687 V 62.679687"
     id="path15" />
  <path
     style="fill:none;stroke:#000000;stroke-width:30;stroke-linecap:butt;stroke-linejoin:round;stroke-miterlimit:10;stroke-opacity:1"
     d="M 198.25,4.5429687 V 62.679687"
     id="path17" />
  <path
     style="fill:none;stroke:#000000;stroke-width:30;stroke-linecap:butt;stroke-linejoin:round;stroke-miterlimit:10;stroke-opacity:1"
     d="M 23.34375,278.27344 H 273.48828"
     id="path19" />
  <path
     style="fill:none;stroke:#000000;stroke-width:30;stroke-linecap:butt;stroke-linejoin:round;stroke-miterlimit:10;stroke-opacity:1"
     d="M 40.445312,120.82031 H 256.39062"
     id="path21" />
</svg>

<?xml version="1.0" encoding="UTF-8"?>
<svg xmlns="http://www.w3.org/2000/svg" xmlns:xlink="http://www.w3.org/1999/xlink" width="100" height="100" viewBox="-50 -100 386.833 503" version="1.1">
<defs>
<clipPath id="clip1">
  <path d="M 0 0 L 296.832031 0 L 296.832031 373 L 0 373 Z M 0 0 "/>
</clipPath>
</defs>
<g id="surface1" transform="translate(0 -20)">
<path style=" stroke:none;fill-rule:nonzero;fill:rgb(80.000305%,80.000305%,80.000305%);fill-opacity:1;" d="M 49.320312 182.347656 C 49.804688 113.917969 5.804688 57.183594 18.757812 16.238281 L 278.078125 16.238281 C 291.03125 57.183594 247.03125 113.917969 247.515625 182.347656 C 248.023438 254.550781 291.425781 314.5625 278.078125 356.765625 L 18.757812 356.765625 C 5.40625 314.5625 48.808594 254.550781 49.320312 182.347656 "/>
<path style=" stroke:none;fill-rule:nonzero;fill:rgb(100%,100%,100%);fill-opacity:1;" d="M 92.859375 18 C 83.117188 73.203125 98.859375 143.324219 98.859375 191 C 98.859375 237.542969 80.613281 292.054688 83.859375 357 L 23.519531 356.765625 L 42.859375 191 L 23.519531 15.804688 Z M 92.859375 18 "/>
<g clip-path="url(#clip1)" clip-rule="nonzero">
<path style=" stroke:none;fill-rule:nonzero;fill:rgb(0%,0%,0%);fill-opacity:1;" d="M 251.265625 281.757812 C 242.019531 252.527344 231.539062 219.402344 231.277344 182.464844 C 231.023438 146.65625 241.722656 114.730469 251.160156 86.5625 C 258.113281 65.804688 264.324219 47.269531 264.226562 32.472656 L 32.605469 32.472656 C 32.507812 47.269531 38.71875 65.804688 45.671875 86.5625 C 55.109375 114.730469 65.808594 146.65625 65.554688 182.464844 C 65.292969 219.402344 54.8125 252.53125 45.566406 281.757812 C 38.40625 304.402344 32.019531 324.585938 32.464844 340.527344 L 264.371094 340.527344 C 264.8125 324.585938 258.429688 304.402344 251.265625 281.757812 M 3.277344 361.660156 C -5.246094 334.722656 4.398438 304.238281 14.605469 271.964844 C 23.160156 244.925781 32.855469 214.277344 33.082031 182.234375 C 33.300781 151.839844 23.9375 123.898438 14.882812 96.878906 C 4.65625 66.355469 -5.007812 37.523438 3.277344 11.339844 C 5.410156 4.589844 11.675781 0 18.757812 0 L 278.078125 0 C 285.15625 0 291.421875 4.589844 293.558594 11.339844 C 301.839844 37.523438 292.179688 66.355469 281.949219 96.878906 C 272.894531 123.898438 263.535156 151.839844 263.75 182.234375 C 263.976562 214.277344 273.671875 244.921875 282.226562 271.964844 C 292.4375 304.234375 302.078125 334.722656 293.558594 361.660156 C 291.421875 368.410156 285.15625 373 278.078125 373 L 18.757812 373 C 11.675781 373 5.410156 368.410156 3.277344 361.660156 "/>
</g>
<path style="fill:none;stroke-width:30;stroke-linecap:butt;stroke-linejoin:round;stroke:rgb(0%,0%,0%);stroke-opacity:1;stroke-miterlimit:10;" d="M -0.00136875 -0.00096875 L -0.00136875 -58.137687 " transform="matrix(1,0,0,-1,98.5834,24.542)"/>
<path style="fill:none;stroke-width:30;stroke-linecap:butt;stroke-linejoin:round;stroke:rgb(0%,0%,0%);stroke-opacity:1;stroke-miterlimit:10;" d="M -0.0004 -0.00096875 L -0.0004 -58.137687 " transform="matrix(1,0,0,-1,198.2504,24.542)"/>
<path style="fill:none;stroke-width:30;stroke-linecap:butt;stroke-linejoin:round;stroke:rgb(0%,0%,0%);stroke-opacity:1;stroke-miterlimit:10;" d="M -0.00135 -0.0019375 L 250.143181 -0.0019375 " transform="matrix(1,0,0,-1,23.3451,298.2715)"/>
<path style="fill:none;stroke-width:30;stroke-linecap:butt;stroke-linejoin:round;stroke:rgb(0%,0%,0%);stroke-opacity:1;stroke-miterlimit:10;" d="M 0.0006125 -0.0010125 L 215.945925 -0.0010125 " transform="matrix(1,0,0,-1,40.4447,140.8193)"/>
</g>
</svg>
